X:15786
T:Spanish Cloak
M:6/8
L:1/8
Q:100
K:G
G2 GAB G | A2 ABc A | G2 GAB d | A2 F2 D2 | G2 GAB G | A2 ABc A| d2 def
d | c2 A2 F2 |
g3 agf |d2 g2 a2 |b2 a2 g2 | f2  g2  a2 | b2 a2 g2 | f2 defd | dcAdcA |
A2 G2 F2 !
